public/css/fa/svgs/solid/folder-tree.svg

<svg xmlns="http://www.w3.org/2000/svg" viewBox="0 0 576 512"><!--! Font Awesome Free 6.0.0 by @fontawesome - https://fontawesome.com License - https://fontawesome.com/license/free (Icons: CC BY 4.0, Fonts: SIL OFL 1.1, Code: MIT License) Copyright 2022 Fonticons, Inc. --><path d="M544 32h-112l-32-32H320c-17.62 0-32 14.38-32 32v160c0 17.62 14.38 32 32 32h224c17.62 0 32-14.38 32-32V64C576 46.38 561.6 32 544 32zM544 320h-112l-32-32H320c-17.62 0-32 14.38-32 32v160c0 17.62 14.38 32 32 32h224c17.62 0 32-14.38 32-32v-128C576 334.4 561.6 320 544 320zM64 16C64 7.125 56.88 0 48 0h-32C7.125 0 0 7.125 0 16V416c0 17.62 14.38 32 32 32h224v-64H64V160h192V96H64V16z"/></svg>

<svg xmlns="http://www.w3.org/2000/svg" viewBox="0 0 576 512"><!-- Font Awesome Pro 5.15.1 by @fontawesome - https://fontawesome.com License - https://fontawesome.com/license (Commercial License) --><path d="M544 32H432L400 0h-80a32 32 0 0 0-32 32v160a32 32 0 0 0 32 32h224a32 32 0 0 0 32-32V64a32 32 0 0 0-32-32zm0 288H432l-32-32h-80a32 32 0 0 0-32 32v160a32 32 0 0 0 32 32h224a32 32 0 0 0 32-32V352a32 32 0 0 0-32-32zM64 16A16 16 0 0 0 48 0H16A16 16 0 0 0 0 16v400a32 32 0 0 0 32 32h224v-64H64V160h192V96H64z"/></svg>
